X: 21049
T: Jumping White Nut Eater, The
R: reel
M: 4/4
K: Gmixolydian
|:B2BG c2Bc|AF ~F2 ABcA|GFDC DEFG|ABcA BGGA|
B2BG c2Bc|AF ~F2 FGAc|~d2gd ~c2fc|1 BdcA GFGA:|2 BdcA Gdef||
|:gG~G2 dGBd|fc ~c2 cdef|gG~G2 dGBd|fdcA ~F3A|
~d2gd ~c2fc|BGdG ~F2GA|B2GB c2Bc|1 dgfd cdef:|2 dgfd c2cA||

